packages/kaspersky-hexa-ui-icons/src/iconsSVGs/48/AppUpdate.svg

<svg xmlns="http://www.w3.org/2000/svg" width="48" height="48" fill="none" viewBox="0 0 48 48"><path fill="currentColor" fill-rule="evenodd" d="M0 3v42h48V3zm46 2v4H2V5zM2 43V11h44v32zM45 8h-2V6h2zm-4 0h-2V6h2zM14.17 25.18l-2-.36c.8309-4.5269 4.1778-8.1797 8.6149-9.4024C25.222 14.1948 29.9676 15.6177 33 19.08V16h2v7h-7v-2h4c-2.3871-3.1539-6.409-4.6044-10.2597-3.7001S14.9338 21.2932 14.2 25.18zM34 27.91l2 .18c-.6059 6.1781-5.7923 10.8934-12 10.91a11.89 11.89 0 0 1-10-5.39V37h-2v-7h7v2h-3.65A9.92 9.92 0 0 0 24 37c5.1752-.0068 9.501-3.9389 10-9.09" clip-rule="evenodd"/></svg>

<svg width="48" height="48" viewBox="0 0 48 48" fill="none" xmlns="http://www.w3.org/2000/svg">
<path fill-rule="evenodd" clip-rule="evenodd" d="M0 3V45H48V3H0ZM46 5V9H2V5H46ZM2 43V11H46V43H2ZM45 8H43V6H45V8ZM41 8H39V6H41V8ZM14.17 25.18L12.17 24.82C13.0009 20.2931 16.3478 16.6403 20.7849 15.4176C25.222 14.1948 29.9676 15.6177 33 19.08V16H35V23H28V21H32C29.6129 17.8461 25.591 16.3956 21.7403 17.2999C17.8896 18.2042 14.9338 21.2932 14.2 25.18H14.17ZM34 27.91L36 28.09C35.3941 34.2681 30.2077 38.9834 24 39C19.9684 39.0149 16.204 36.9858 14 33.61V37H12V30H19V32H15.35C17.1223 35.103 20.4266 37.013 24 37C29.1752 36.9932 33.501 33.0611 34 27.91Z"  fill="currentColor"/>
</svg>
